src/desktop/assets/theme/light/drawpile_chat.svg

<svg height="22" width="22" xmlns="http://www.w3.org/2000/svg"><g fill="#232629" transform="translate(-553.72253 -583.11926)"><path d="m11 3a8 6 0 0 0 -8 6 8 6 0 0 0 2.2011719 4.128906l-2.2011719 5.871094 6.5625-4.101562a8 6 0 0 0 1.4375.101562 8 6 0 0 0 8-6 8 6 0 0 0 -8-6zm0 1.0273438c1.892663-.0000002 3.766628.5969435 5.041016 1.5527343 1.274387.9557909 1.93164 2.2077596 1.93164 3.4199219 0 1.212162-.657253 2.464131-1.93164 3.419922-1.273946.955459-3.147069 1.552321-5.039063 1.552734-.43552-.001163-.869751-.032083-1.2968749-.091797a1.0275136 1.0275136 0 0 0 -.6875.146485l-3.9902343 2.49414 1.1367187-3.03125a1.0275136 1.0275136 0 0 0 -.3261719-1.167968c-1.1959735-.943789-1.8093714-2.152455-1.8105468-3.3242191.0006623-1.2115925.6578948-2.4626594 1.9316406-3.4179688 1.2743877-.9557908 3.1483521-1.5527343 5.0410156-1.5527343z" transform="translate(553.72253 583.11926)"/><rect height="1" ry=".5" width="10" x="559.72253" y="590.11926"/><rect height="1" ry=".5" width="10" x="559.72253" y="593.11926"/></g></svg>

<?xml version="1.0" encoding="UTF-8" standalone="no"?>
<!-- Created with Inkscape (http://www.inkscape.org/) -->

<svg
   xmlns:dc="http://purl.org/dc/elements/1.1/"
   xmlns:cc="http://creativecommons.org/ns#"
   xmlns:rdf="http://www.w3.org/1999/02/22-rdf-syntax-ns#"
   xmlns:svg="http://www.w3.org/2000/svg"
   xmlns="http://www.w3.org/2000/svg"
   xmlns:sodipodi="http://sodipodi.sourceforge.net/DTD/sodipodi-0.dtd"
   xmlns:inkscape="http://www.inkscape.org/namespaces/inkscape"
   width="22"
   height="22"
   id="svg3760"
   version="1.1"
   inkscape:version="0.91 r13725"
   sodipodi:docname="chat.svg">
  <defs
     id="defs3762" />
  <sodipodi:namedview
     id="base"
     pagecolor="#ffffff"
     bordercolor="#666666"
     borderopacity="1.0"
     inkscape:pageopacity="0.0"
     inkscape:pageshadow="2"
     inkscape:zoom="11.313708"
     inkscape:cx="2.6788728"
     inkscape:cy="8.3889261"
     inkscape:document-units="px"
     inkscape:current-layer="layer1"
     showgrid="true"
     fit-margin-top="0"
     fit-margin-left="0"
     fit-margin-right="0"
     fit-margin-bottom="0"
     inkscape:window-width="1920"
     inkscape:window-height="1012"
     inkscape:window-x="-4"
     inkscape:window-y="39"
     inkscape:window-maximized="1"
     inkscape:showpageshadow="false">
    <sodipodi:guide
       position="4.1796875e-06,21.999997"
       orientation="22,0"
       id="guide4116" />
    <sodipodi:guide
       position="4.1796875e-06,-2.6953124e-06"
       orientation="0,22"
       id="guide4118" />
    <sodipodi:guide
       position="22.000004,-2.6953124e-06"
       orientation="-22,0"
       id="guide4120" />
    <sodipodi:guide
       position="22.000004,21.999997"
       orientation="0,-22"
       id="guide4122" />
    <sodipodi:guide
       position="2.0000042,19.999997"
       orientation="18,0"
       id="guide4124" />
    <sodipodi:guide
       position="20.000004,1.9999973"
       orientation="-18,0"
       id="guide4128" />
    <sodipodi:guide
       position="20.000004,19.999997"
       orientation="0,-18"
       id="guide4130" />
    <sodipodi:guide
       position="3.0000042,18.999997"
       orientation="16,0"
       id="guide4132" />
    <sodipodi:guide
       position="3.0000042,2.9999973"
       orientation="0,16"
       id="guide4134" />
    <sodipodi:guide
       position="19.000004,2.9999973"
       orientation="-16,0"
       id="guide4136" />
    <sodipodi:guide
       position="19.000004,18.999997"
       orientation="0,-16"
       id="guide4138" />
    <inkscape:grid
       type="xygrid"
       id="grid4140" />
  </sodipodi:namedview>
  <metadata
     id="metadata3765">
    <rdf:RDF>
      <cc:Work
         rdf:about="">
        <dc:format>image/svg+xml</dc:format>
        <dc:type
           rdf:resource="http://purl.org/dc/dcmitype/StillImage" />
        <dc:title />
      </cc:Work>
    </rdf:RDF>
  </metadata>
  <g
     inkscape:label="Capa 1"
     inkscape:groupmode="layer"
     id="layer1"
     transform="translate(-553.72253,-583.11926)">
    <path
       style="opacity:1;fill:#4d4d4d;fill-opacity:1;stroke:none;stroke-width:3;stroke-linecap:round;stroke-linejoin:bevel;stroke-miterlimit:4;stroke-dasharray:none;stroke-dashoffset:0;stroke-opacity:1"
       d="M 11 3 A 8 6 0 0 0 3 9 A 8 6 0 0 0 5.2011719 13.128906 L 3 19 L 9.5625 14.898438 A 8 6 0 0 0 11 15 A 8 6 0 0 0 19 9 A 8 6 0 0 0 11 3 z M 11 4.0273438 C 12.892663 4.0273436 14.766628 4.6242873 16.041016 5.5800781 C 17.315403 6.535869 17.972656 7.7878377 17.972656 9 C 17.972656 10.212162 17.315403 11.464131 16.041016 12.419922 C 14.76707 13.375381 12.893947 13.972243 11.001953 13.972656 C 10.566433 13.971493 10.132202 13.940573 9.7050781 13.880859 A 1.0275136 1.0275136 0 0 0 9.0175781 14.027344 L 5.0273438 16.521484 L 6.1640625 13.490234 A 1.0275136 1.0275136 0 0 0 5.8378906 12.322266 C 4.6419171 11.378477 4.0285192 10.169811 4.0273438 8.9980469 C 4.0280061 7.7864544 4.6852386 6.5353875 5.9589844 5.5800781 C 7.2333721 4.6242873 9.1073365 4.0273438 11 4.0273438 z "
       transform="translate(553.72253,583.11926)"
       id="path4213" />
    <rect
       ry="0.5"
       y="590.11926"
       x="559.72253"
       height="1"
       width="10"
       id="rect4223"
       style="opacity:1;fill:#4d4d4d;fill-opacity:1;stroke:none;stroke-width:3;stroke-linecap:round;stroke-linejoin:bevel;stroke-miterlimit:4;stroke-dasharray:none;stroke-dashoffset:0;stroke-opacity:1" />
    <rect
       style="opacity:1;fill:#4d4d4d;fill-opacity:1;stroke:none;stroke-width:3;stroke-linecap:round;stroke-linejoin:bevel;stroke-miterlimit:4;stroke-dasharray:none;stroke-dashoffset:0;stroke-opacity:1"
       id="rect4225"
       width="10"
       height="1"
       x="559.72253"
       y="593.11926"
       ry="0.5" />
  </g>
</svg>
